apps/i2021/public/icons/memory.svg

<svg enable-background="new 0 0 512 512" viewBox="-50 -50 600 600" xmlns="http://www.w3.org/2000/svg"><path d="m256 33.085c-10.922-19.705-31.921-33.085-56-33.085-23.781 0-45.57 13.293-56.594 34.184-27.695 7.418-47.406 32.793-47.406 61.816v.172c-9.977 7.512-16 19.301-16 31.828 0 1.316.078 2.637.234 3.992-20.023 13.274-32.234 35.766-32.234 60.008 0 14.07 4.039 27.543 11.719 39.262-2.446 5.25-3.719 10.945-3.719 16.738 0 2.738.281 5.445.828 8.098-20.156 11.21-32.828 32.441-32.828 55.902 0 27.973 18.305 52.34 44.109 60.785-2.711 6.043-4.109 12.539-4.109 19.215 0 21.098 13.805 39.508 33.539 45.727 6.352 29.019 32.289 50.273 62.461 50.273 4.617 0 9.227-.512 13.766-1.527 8.226 15.527 24.375 25.527 42.234 25.527 16.687 0 31.396-8.567 40-21.523z" fill="#ffe1b2"/><g fill="#ffb980"><path d="m264 256c-4.422 0-8-3.582-8-8 0-22.055-17.945-40-40-40-8.008 0-15.734 2.355-22.336 6.812-3.023 2.043-7.055 1.781-9.797-.652-3.156-2.809-8.477-6.16-15.867-6.16-4.422 0-8-3.582-8-8s3.578-8 8-8c7.711 0 15.234 2.293 21.719 6.539 8.054-4.293 17.039-6.539 26.281-6.539 30.875 0 56 25.121 56 56 0 4.418-3.578 8-8 8z"/><path d="m120 120c18.977 0 36.875 7.312 50.414 20.594 3.141 3.09 8.203 3.047 11.312-.109 3.094-3.152 3.047-8.219-.109-11.312-16.547-16.232-38.43-25.173-61.617-25.173-13.046 0-25.395 2.93-36.542 8.046-2.205 4.973-3.458 10.377-3.458 15.954 0 1.316.078 2.637.234 3.992-.094.062-.173.139-.267.202 11.456-7.693 25.226-12.194 40.033-12.194z"/><path d="m216 360c0-4.418-3.578-8-8-8s-8 3.582-8 8c0 17.645-14.352 32-32 32-14.211 0-26.82-9.648-30.664-23.465-.703-2.512-2.578-4.523-5.039-5.395-2.453-.871-5.188-.492-7.305 1.02-10.898 7.746-23.687 11.84-36.992 11.84-6.948 0-13.625-1.149-19.894-3.207-2.214 4.939-3.501 10.19-3.916 15.586 7.524 2.351 15.521 3.621 23.81 3.621 13.297 0 26.187-3.266 37.773-9.52 8.196 15.414 24.368 25.52 42.227 25.52 26.469 0 48-21.531 48-48z"/></g><path d="m488 312c0-23.461-12.672-44.691-32.828-55.902.547-2.652.828-5.359.828-8.098 0-5.793-1.273-11.488-3.719-16.738 7.68-11.719 11.719-25.192 11.719-39.262 0-24.242-12.211-46.734-32.234-60.008.156-1.355.234-2.676.234-3.992 0-12.527-6.023-24.316-16-31.828 0-.059 0-.113 0-.172 0-29.023-19.711-54.398-47.406-61.816-11.024-20.891-32.813-34.184-56.594-34.184-24.08 0-45.078 13.38-56 33.085v457.391c8.604 12.957 23.313 21.524 40 21.524 17.859 0 34.008-10 42.234-25.527 4.539 1.015 9.149 1.527 13.766 1.527 30.172 0 56.109-21.254 62.461-50.273 19.734-6.219 33.539-24.63 33.539-45.727 0-6.676-1.398-13.172-4.109-19.215 25.804-8.445 44.109-32.812 44.109-60.785z" fill="#fdc88e"/><g fill="#f8ab6b"><path d="m272.008 151.199c-.008.266-.008.535-.008.801 0 26.469 21.531 48 48 48s48-21.531 48-48c0-4.418-3.578-8-8-8s-8 3.582-8 8c0 17.645-14.352 32-32 32s-32-14.355-32-32c0-2.184.219-4.359.656-6.465.492-2.395-.133-4.883-1.703-6.754s-4.016-3.066-6.352-2.859c-.453.012-.891.059-.602.078-13.234 0-24-10.766-24-24v31.813c4.674 3.535 10.062 6.175 16.009 7.386z"/><path d="m296 328c9.242 0 18.219-2.246 26.281-6.539 6.484 4.246 14.008 6.539 21.719 6.539 4.422 0 8-3.582 8-8s-3.578-8-8-8c-7.391 0-12.711-3.352-15.867-6.16-2.742-2.434-6.766-2.695-9.797-.656-6.61 4.46-14.336 6.816-22.336 6.816-22.055 0-40-17.945-40-40v39.116c10.174 10.401 24.337 16.884 40 16.884z"/><path d="m431.765 131.992c.156-1.355.234-2.676.234-3.992 0-5.577-1.253-10.981-3.458-15.954-11.146-5.116-23.495-8.046-36.541-8.046-4.422 0-8 3.582-8 8s3.578 8 8 8c14.807 0 28.577 4.501 40.032 12.194-.093-.063-.173-.14-.267-.202z"/><path d="m447.81 388.38c-.415-5.396-1.702-10.647-3.916-15.586-6.27 2.056-12.946 3.206-19.894 3.206-13.578 0-26.594-4.266-37.641-12.332-2.07-1.5-4.719-1.93-7.133-1.168-2.43.77-4.344 2.648-5.164 5.059-4.961 14.617-18.648 24.441-34.062 24.441-4.422 0-8 3.582-8 8s3.578 8 8 8c18.875 0 35.961-10.191 45.094-26.156 11.882 6.668 25.164 10.156 38.906 10.156 8.288 0 16.285-1.27 23.81-3.62z"/></g></svg>

<svg viewBox="-50 -50 600 600" xmlns="http://www.w3.org/2000/svg"><path d="M256 33.085C245.078 13.38 224.079 0 200 0c-23.781 0-45.57 13.293-56.594 34.184C115.711 41.602 96 66.977 96 96v.172c-9.977 7.512-16 19.301-16 31.828 0 1.316.078 2.637.234 3.992C60.211 145.266 48 167.758 48 192c0 14.07 4.039 27.543 11.719 39.262A39.582 39.582 0 0 0 56 248c0 2.738.281 5.445.828 8.098C36.672 267.308 24 288.539 24 312c0 27.973 18.305 52.34 44.109 60.785A46.76 46.76 0 0 0 64 392c0 21.098 13.805 39.508 33.539 45.727C103.891 466.746 129.828 488 160 488c4.617 0 9.227-.512 13.766-1.527C181.992 502 198.141 512 216 512c16.687 0 31.396-8.567 40-21.523z" fill="#ffe1b2"/><path d="M264 256c-4.422 0-8-3.582-8-8 0-22.055-17.945-40-40-40-8.008 0-15.734 2.355-22.336 6.812a8.006 8.006 0 0 1-9.797-.652C180.711 211.351 175.39 208 168 208c-4.422 0-8-3.582-8-8s3.578-8 8-8c7.711 0 15.234 2.293 21.719 6.539C197.773 194.246 206.758 192 216 192c30.875 0 56 25.121 56 56 0 4.418-3.578 8-8 8zM120 120c18.977 0 36.875 7.312 50.414 20.594 3.141 3.09 8.203 3.047 11.312-.109a7.997 7.997 0 0 0-.109-11.312C165.07 112.941 143.187 104 120 104c-13.046 0-25.395 2.93-36.542 8.046C81.253 117.019 80 122.423 80 128c0 1.316.078 2.637.234 3.992-.094.062-.173.139-.267.202C91.423 124.501 105.193 120 120 120zm96 240c0-4.418-3.578-8-8-8s-8 3.582-8 8c0 17.645-14.352 32-32 32-14.211 0-26.82-9.648-30.664-23.465a8.007 8.007 0 0 0-5.039-5.395 7.987 7.987 0 0 0-7.305 1.02C114.094 371.906 101.305 376 88 376c-6.948 0-13.625-1.149-19.894-3.207-2.214 4.939-3.501 10.19-3.916 15.586A79.707 79.707 0 0 0 88 392c13.297 0 26.187-3.266 37.773-9.52C133.969 397.894 150.141 408 168 408c26.469 0 48-21.531 48-48z" fill="#ffb980"/><path d="M488 312c0-23.461-12.672-44.691-32.828-55.902.547-2.652.828-5.359.828-8.098a39.582 39.582 0 0 0-3.719-16.738C459.961 219.543 464 206.07 464 192c0-24.242-12.211-46.734-32.234-60.008.156-1.355.234-2.676.234-3.992 0-12.527-6.023-24.316-16-31.828V96c0-29.023-19.711-54.398-47.406-61.816C357.57 13.293 335.781 0 312 0c-24.08 0-45.078 13.38-56 33.085v457.391C264.604 503.433 279.313 512 296 512c17.859 0 34.008-10 42.234-25.527A63.041 63.041 0 0 0 352 488c30.172 0 56.109-21.254 62.461-50.273C434.195 431.508 448 413.097 448 392a46.76 46.76 0 0 0-4.109-19.215C469.695 364.34 488 339.973 488 312z" fill="#fdc88e"/><path d="M272.008 151.199c-.008.266-.008.535-.008.801 0 26.469 21.531 48 48 48s48-21.531 48-48c0-4.418-3.578-8-8-8s-8 3.582-8 8c0 17.645-14.352 32-32 32s-32-14.355-32-32c0-2.184.219-4.359.656-6.465.492-2.395-.133-4.883-1.703-6.754s-4.016-3.066-6.352-2.859c-.453.012-.891.059-.602.078-13.234 0-24-10.766-24-24v31.813c4.674 3.535 10.062 6.175 16.009 7.386zM296 328c9.242 0 18.219-2.246 26.281-6.539C328.765 325.707 336.289 328 344 328c4.422 0 8-3.582 8-8s-3.578-8-8-8c-7.391 0-12.711-3.352-15.867-6.16a8.01 8.01 0 0 0-9.797-.656C311.726 309.644 304 312 296 312c-22.055 0-40-17.945-40-40v39.116C266.174 321.517 280.337 328 296 328zm135.765-196.008c.156-1.355.234-2.676.234-3.992 0-5.577-1.253-10.981-3.458-15.954C417.395 106.93 405.046 104 392 104c-4.422 0-8 3.582-8 8s3.578 8 8 8c14.807 0 28.577 4.501 40.032 12.194-.093-.063-.173-.14-.267-.202zM447.81 388.38c-.415-5.396-1.702-10.647-3.916-15.586C437.624 374.85 430.948 376 424 376c-13.578 0-26.594-4.266-37.641-12.332a8.04 8.04 0 0 0-7.133-1.168 8.009 8.009 0 0 0-5.164 5.059C369.101 382.176 355.414 392 340 392c-4.422 0-8 3.582-8 8s3.578 8 8 8c18.875 0 35.961-10.191 45.094-26.156C396.976 388.512 410.258 392 424 392c8.288 0 16.285-1.27 23.81-3.62z" fill="#f8ab6b"/></svg>
